icons/svg/pool.svg

﻿<?xml version="1.0" encoding="utf-8"?>
<!DOCTYPE svg PUBLIC "-//W3C//DTD SVG 1.1//EN" "http://www.w3.org/Graphics/SVG/1.1/DTD/svg11.dtd">
<svg xmlns="http://www.w3.org/2000/svg" xmlns:xlink="http://www.w3.org/1999/xlink" version="1.1" baseProfile="full" width="24" height="24" viewBox="0 0 24.00 24.00" enable-background="new 0 0 24.00 24.00" xml:space="preserve">
	<path fill="#000000" fill-opacity="1" stroke-width="0.2" stroke-linejoin="round" d="M 2,15C 3.66667,14.25 5.33333,13.5 7,13.1719L 7,5.00001C 7,3.34315 8.34315,2.00001 10,2.00001C 11.3062,2.00001 12.4175,2.83481 12.8293,4L 10,4C 9.44772,4 9,4.44772 9,5L 9,6L 14,6L 14,5C 14,3.34315 15.3431,2 17,2C 18.3062,2 19.4175,2.83481 19.8293,3.99999L 17,4C 16.4477,4 16,4.44771 16,5L 16,14.944C 18,14.62 20,13 22,13L 22,15C 19.7778,15 17.5555,17 15.3333,17C 13.1111,17 10.8889,15 8.66666,15C 6.44444,15 4.22222,16 2,17L 2,15 Z M 14,8L 9,8L 9,10L 14,10L 14,8 Z M 14,12L 9,12L 9,13.0145C 10.6667,13.157 12.3333,14.312 14,14.792L 14,12 Z M 2.00002,19C 4.22224,18 6.44446,17 8.66668,17C 10.8889,17 13.1111,19 15.3333,19C 17.5556,19 19.7778,17 22,17L 22,19C 19.7778,19 17.5556,21 15.3333,21C 13.1111,21 10.8889,19 8.66668,19C 6.44446,19 4.22224,20 2.00002,21L 2.00002,19 Z "/>
</svg>

<svg xmlns="http://www.w3.org/2000/svg" version="1.1" baseProfile="full" width="24" height="24" viewBox="0 0 24.00 24.00" xml:space="preserve"><path fill="#000" fill-opacity="1" stroke-width=".2" stroke-linejoin="round" d="M2 15c1.667-.75 3.333-1.5 5-1.828V5c0-1.657 1.343-3 3-3 1.306 0 2.418.835 2.83 2H10c-.552 0-1 .448-1 1v1h5V5c0-1.657 1.343-3 3-3 1.306 0 2.418.835 2.83 2H17c-.552 0-1 .448-1 1v9.944C18 14.62 20 13 22 13v2c-2.222 0-4.445 2-6.667 2-2.222 0-4.444-2-6.666-2C6.444 15 4.222 16 2 17v-2zm12-7H9v2h5V8zm0 4H9v1.014c1.667.143 3.333 1.298 5 1.778V12zM2 19c2.222-1 4.444-2 6.667-2 2.222 0 4.444 2 6.666 2 2.223 0 4.445-2 6.667-2v2c-2.222 0-4.444 2-6.667 2-2.222 0-4.444-2-6.666-2C6.444 19 4.222 20 2 21v-2z"/></svg>
